X:1
T: the Blue-Eyed Stranger
O:England
S:Bay Area Teams
S:Morris Ring
Z:John Chambers <jc@trillian.mit.edu>
A:Field Town
M: C|
L:1/8
R:Reel
K:G
|: G2 D2 D2 GF | EDEF G2 GA | B3 d cBAG | E3 F G4 :| GABc d2 d2 | edcB A4 |
| GABc d2 d2 | B3 c d4 | GABc d2 d2 | edcB A2 GA | B3 c BAGF | E3 F G4 |]
